X: 41320
T: Turbo Shandy
R: reel
M: 4/4
K: Amixolydian
Aeed eAcd|eaaf gedg|Aeed eAcd|egdB BAAG|
Aeed eAcd|eaaf gedg|Aeed eAcd|egdB BAAf||
ge e2 a3f|ge e2 fddf|ge e2 a2 cd|egdB BAAf|
ge e2 a3f|ge e2 fddf|ge e2 a2 cd|egdB BAAG||

